X:1
T:Gontenschwil, 10.8.10.8
T:Gontenschwil, 10.8.10.8
T:Rose C. Meyer, 1902
T:Public Domain Courtesy of the Cyber Hymnal™
C:Rose C. Meyer, 1902
Z:Public Domain
Z:Courtesy of the Cyber Hymnal™
%%score ( 1 2 ) ( 3 4 )
L:1/8
Q:1/4=140
M:4/2
K:C
V:1 treble 
V:2 treble 
V:3 bass 
V:4 bass 
V:1
 [EG]2 [EG]2 | [FA]4 [FA]2 [FA]2 [Fc]4 [GB]2 [FB]2 | c8 [Gd]4 [=FG]2 [FG]2 | %3
 [Ee]4 [Fd]2 [Fd]2 [Gc]4 [Gd]2 [^Fd]2 | [Gd]12 [GB]2 [GB]2 | [Be]4 [Bd]2 [Bd]2 [Ac]4 [F_B]2 [FB]2 | %6
 (A4 ^G4) [EB]4 [GB]4 | A4 [FA]2 [FA]2 [Ad]4 [GB]2 [FB]2 | [Ec]12 |] %9
V:2
 x4 | x16 | (E4 ^F4) x8 | x16 | x16 | x16 | E8 x8 | A4 x12 | x12 |] %9
V:3
 [C,C]2 [C,C]2 | [F,C]4 [F,C]2 [F,C]2 [D,D]4 [G,D]2 [G,D]2 | [A,C]8 [G,B,]4 [G,B,]2 [G,B,]2 | %3
 [C,C]4 [D,A,]2 [D,A,]2 [E,C]4 [D,A,]2 [D,A,]2 | [G,B,]12 [G,D]2 [G,D]2 | %5
 [^G,E]4 [G,E]2 [G,E]2 [A,E]4 [D,D]2 [D,D]2 | (C4 B,4) [E,^G,]4 [E,D]4 | %7
 [F,C]4 [F,C]2 [F,C]2 [D,F]4 [G,D]2 [G,D]2 | [C,C]12 |] %9
V:4
 x4 | x16 | x16 | x16 | x16 | x16 | E,8 x8 | x16 | x12 |] %9

